X:1
T: Miss Robertson
C:
R:Reel
Q: 232
K:A
M:4/4
L:1/8
|:F|E2 CA FD FA|GE GB Ae cA|E2 CA FD FA|GB Ed cA A2|
E2 CA FD FA|GE GB Ae cA|E2 CA FD FA|GB Ed cA Ae|
aA gA fA eA|dc BA BG Eg|aA gA fA eA|Bc dB cA Ag|
aA gA fA eA|dc BA GF E=G|FD FA GE dB|ce Bd cA A:|
